svg/u1f52f.svg

<svg viewBox="0 0 128 128" xmlns="http://www.w3.org/2000/svg">
  <g>
    <path d="M116,4H12c-4.42,0-8,3.58-8,8v104c0,4.42,3.58,8,8,8h104c4.42,0,8-3.58,8-8V12 C124,7.58,120.42,4,116,4z" fill="#8E24AA"/>
    <path d="M109.7,4H11.5C7.37,4.03,4.03,7.37,4,11.5v97.9c-0.01,4.14,3.34,7.49,7.48,7.5c0.01,0,0.01,0,0.02,0 h98.1c4.14,0.01,7.49-3.34,7.5-7.48c0-0.01,0-0.01,0-0.02V11.5c0.09-4.05-3.13-7.41-7.18-7.5C109.85,4,109.77,4,109.7,4z" fill="#AB47BC"/>
    <path d="M39.7,12.9c0-2.3-1.6-3-10.8-2.7c-7.7,0.3-11.5,1.2-13.8,4 s-2.9,8.5-3,15.3c0,4.8,0,9.3,2.5,9.3c3.4,0,3.4-7.9,6.2-12.3C26.2,17.8,39.7,15.9,39.7,12.9z" opacity="0.3" fill="#FAFAFA" enable-background="new "/>
    <circle cx="64" cy="64" r="6" fill="#FAFAFA"/>
    <path d="M93.3,64L107,41.5c0.28-0.48,0.11-1.09-0.36-1.37c-0.13-0.08-0.28-0.12-0.44-0.13H78.7L64.8,16.5 c-0.29-0.47-0.91-0.61-1.38-0.32c-0.13,0.08-0.24,0.19-0.32,0.32L49.3,40H21.8c-0.55-0.02-1.01,0.41-1.03,0.97 c-0.01,0.19,0.04,0.37,0.13,0.53L34.7,64L20.9,86.5c-0.28,0.48-0.11,1.09,0.37,1.37c0.16,0.09,0.35,0.14,0.53,0.13h27.6l13.8,23.5 c0.29,0.47,0.91,0.61,1.38,0.32c0.13-0.08,0.24-0.19,0.32-0.32L78.7,88h27.6c0.52,0.03,0.96-0.37,0.98-0.89 c0.01-0.22-0.05-0.43-0.18-0.61L93.3,64z M97.3,46l-7.5,12.2L82.3,46H97.3z M86.3,64l-11,18H52.7l-11-18l11-18h22.6L86.3,64z M64,26.6L71.6,40H56.4L64,26.6z M30.7,46h15l-7.5,12.2L30.7,46z M30.7,82l7.5-12.2L45.7,82H30.7z M64,101.4L56.4,88h15.3L64,101.4 z M89.8,69.8L97.3,82h-15L89.8,69.8z" fill="#FAFAFA"/>
  </g>
</svg>

<svg viewBox="0 0 128 128" xmlns="http://www.w3.org/2000/svg">
  <defs/>
  <path d="M116,4 L12,4 C7.58,4 4,7.58 4,12 L4,116 C4,120.42 7.58,124 12,124 L116,124 C120.42,124 124,120.42 124,116 L124,12 C124,7.58 120.42,4 116,4 Z" fill="#8E24AA"/>
  <path d="M109.7,4 L11.5,4 C7.37,4.03 4.03,7.37 4,11.5 L4,109.4 C3.99,113.54 7.34,116.89 11.48,116.9 C11.49,116.9 11.49,116.9 11.5,116.9 L109.6,116.9 C113.74,116.91 117.09,113.56 117.1,109.42 C117.1,109.41 117.1,109.41 117.1,109.4 L117.1,11.5 C117.19,7.45 113.97,4.09 109.92,4 C109.85,4 109.77,4 109.7,4 Z" fill="#AB47BC"/>
  <path d="M39.7,12.9 C39.7,10.6 38.1,9.9 28.9,10.2 C21.2,10.5 17.4,11.4 15.1,14.2 C12.8,17 12.2,22.7 12.1,29.5 C12.1,34.3 12.1,38.8 14.6,38.8 C18,38.8 18,30.9 20.8,26.5 C26.2,17.8 39.7,15.9 39.7,12.9 Z" fill="#FAFAFA" opacity="0.3"/>
  <path d="M70,64 A6 6 0 1 1 58,64 A6 6 0 1 1 70,64 Z" fill="#FAFAFA"/>
  <path d="M93.3,64 L107,41.5 C107.28,41.02 107.11,40.41 106.64,40.13 C106.51,40.05 106.36,40.01 106.2,40 L78.7,40 L64.8,16.5 C64.51,16.03 63.89,15.89 63.42,16.18 C63.29,16.26 63.18,16.37 63.1,16.5 L49.3,40 L21.8,40 C21.25,39.98 20.79,40.41 20.77,40.97 C20.76,41.16 20.81,41.34 20.9,41.5 L34.7,64 L20.9,86.5 C20.62,86.98 20.79,87.59 21.27,87.87 C21.43,87.96 21.62,88.01 21.8,88 L49.4,88 L63.2,111.5 C63.49,111.97 64.11,112.11 64.58,111.82 C64.71,111.74 64.82,111.63 64.9,111.5 L78.7,88 L106.3,88 C106.82,88.03 107.26,87.63 107.28,87.11 C107.29,86.89 107.23,86.68 107.1,86.5 L93.3,64 Z M97.3,46 L89.8,58.2 L82.3,46 L97.3,46 Z M86.3,64 L75.3,82 L52.7,82 L41.7,64 L52.7,46 L75.3,46 L86.3,64 Z M64,26.6 L71.6,40 L56.4,40 L64,26.6 Z M30.7,46 L45.7,46 L38.2,58.2 L30.7,46 Z M30.7,82 L38.2,69.8 L45.7,82 L30.7,82 Z M64,101.4 L56.4,88 L71.7,88 L64,101.4 Z M89.8,69.8 L97.3,82 L82.3,82 L89.8,69.8 Z" fill="#FAFAFA"/>
</svg>
